tenants/donaldduck/icons/arrow_right.svg

<svg fill="none" height="24" viewBox="0 0 24 24" width="24" xmlns="http://www.w3.org/2000/svg"><path d="m.59751 8.28351c.298755-.30046.69709-.40062 1.09543-.40062l15.63486 1.50232v-3.10478c0-.60093.2987-1.10169.8962-1.20185.498-.20031 1.0955 0 1.3942.40062l4.083 5.6086c.3984.5008.3984 1.302 0 1.8028l-4.083 5.6086c-.1991.3005-.5975.5008-.9958.5008-.0996 0-.2988 0-.3984-.1002-.4979-.2003-.8962-.7011-.8962-1.2018v-2.9045l-15.83403 1.4022c-.39834 0-.796675-.1002-.995845-.3005-.298756-.3005-.497925-.6009-.497925-1.0015v-5.50849c.0995844-.40062.298755-.80124.59751-1.1017zm1.49377 5.90909 15.83402-1.4022c.3983 0 .6971.1002.9958.4006.2988.3005.498.601.498 1.0016v1.302l2.4896-3.5054-2.5892-3.50538v1.50231c0 .40057-.1992.80117-.3984 1.00147-.2987.3005-.5975.4007-.9958.3005l-15.83402-1.30197z" fill="#1b1d21"/></svg>

<svg width="24" height="24" viewBox="0 0 24 24" fill="none" xmlns="http://www.w3.org/2000/svg">
<path d="M0.59751 8.28351C0.896265 7.98305 1.2946 7.88289 1.69294 7.88289L17.3278 9.38521V6.28043C17.3278 5.6795 17.6265 5.17874 18.224 5.07858C18.722 4.87827 19.3195 5.07858 19.6182 5.4792L23.7012 11.0878C24.0996 11.5886 24.0996 12.3898 23.7012 12.8906L19.6182 18.4992C19.4191 18.7997 19.0207 19 18.6224 19C18.5228 19 18.3236 19 18.224 18.8998C17.7261 18.6995 17.3278 18.1987 17.3278 17.698V14.7935L1.49377 16.1957C1.09543 16.1957 0.697095 16.0955 0.497925 15.8952C0.199169 15.5947 0 15.2943 0 14.8937V9.38521C0.0995844 8.98459 0.298755 8.58397 0.59751 8.28351ZM2.09128 14.1926L17.9253 12.7904C18.3236 12.7904 18.6224 12.8906 18.9211 13.191C19.2199 13.4915 19.4191 13.792 19.4191 14.1926V15.4946L21.9087 11.9892L19.3195 8.48382V9.98613C19.3195 10.3867 19.1203 10.7873 18.9211 10.9876C18.6224 11.2881 18.3236 11.3883 17.9253 11.2881L2.09128 9.98613V14.1926Z" fill="#1B1D21"/>
</svg>
